Logo/logo.svg

<?xml version="1.0" encoding="UTF-8"?>
<svg xmlns="http://www.w3.org/2000/svg" xmlns:xlink="http://www.w3.org/1999/xlink" width="180pt" height="180pt" viewBox="0 0 180 180" version="1.1">
<defs>
<g>
<symbol overflow="visible" id="glyph0-0">
<path style="stroke:none;" d="M 4.25 0 L 4.25 -21.25 L 21.25 -21.25 L 21.25 0 Z M 4.78125 -0.53125 L 20.71875 -0.53125 L 20.71875 -20.71875 L 4.78125 -20.71875 Z M 4.78125 -0.53125 "/>
</symbol>
<symbol overflow="visible" id="glyph0-1">
<path style="stroke:none;" d="M 3.171875 0 L 3.171875 -24.34375 L 6.390625 -24.34375 L 6.390625 0 Z M 3.171875 0 "/>
</symbol>
<symbol overflow="visible" id="glyph0-2">
<path style="stroke:none;" d="M 2.234375 0 L 2.234375 -17.625 L 4.9375 -17.625 L 4.9375 -15.125 C 6.226562 -17.0625 8.097656 -18.03125 10.546875 -18.03125 C 11.609375 -18.03125 12.582031 -17.835938 13.46875 -17.453125 C 14.363281 -17.078125 15.03125 -16.578125 15.46875 -15.953125 C 15.914062 -15.335938 16.226562 -14.601562 16.40625 -13.75 C 16.507812 -13.195312 16.5625 -12.226562 16.5625 -10.84375 L 16.5625 0 L 13.578125 0 L 13.578125 -10.71875 C 13.578125 -11.9375 13.460938 -12.847656 13.234375 -13.453125 C 13.003906 -14.054688 12.59375 -14.535156 12 -14.890625 C 11.40625 -15.253906 10.707031 -15.4375 9.90625 -15.4375 C 8.632812 -15.4375 7.535156 -15.03125 6.609375 -14.21875 C 5.691406 -13.414062 5.234375 -11.882812 5.234375 -9.625 L 5.234375 0 Z M 2.234375 0 "/>
</symbol>
<symbol overflow="visible" id="glyph0-3">
<path style="stroke:none;" d="M 8.765625 -2.671875 L 9.203125 -0.03125 C 8.359375 0.144531 7.601562 0.234375 6.9375 0.234375 C 5.851562 0.234375 5.007812 0.0625 4.40625 -0.28125 C 3.8125 -0.625 3.394531 -1.070312 3.15625 -1.625 C 2.914062 -2.1875 2.796875 -3.363281 2.796875 -5.15625 L 2.796875 -15.3125 L 0.59375 -15.3125 L 0.59375 -17.625 L 2.796875 -17.625 L 2.796875 -22 L 5.765625 -23.796875 L 5.765625 -17.625 L 8.765625 -17.625 L 8.765625 -15.3125 L 5.765625 -15.3125 L 5.765625 -5 C 5.765625 -4.144531 5.816406 -3.59375 5.921875 -3.34375 C 6.023438 -3.101562 6.195312 -2.910156 6.4375 -2.765625 C 6.675781 -2.628906 7.015625 -2.5625 7.453125 -2.5625 C 7.785156 -2.5625 8.222656 -2.597656 8.765625 -2.671875 Z M 8.765625 -2.671875 "/>
</symbol>
<symbol overflow="visible" id="glyph0-4">
<path style="stroke:none;" d="M 14.3125 -5.671875 L 17.40625 -5.296875 C 16.914062 -3.492188 16.007812 -2.09375 14.6875 -1.09375 C 13.375 -0.09375 11.691406 0.40625 9.640625 0.40625 C 7.066406 0.40625 5.023438 -0.382812 3.515625 -1.96875 C 2.003906 -3.5625 1.25 -5.796875 1.25 -8.671875 C 1.25 -11.628906 2.007812 -13.925781 3.53125 -15.5625 C 5.0625 -17.207031 7.046875 -18.03125 9.484375 -18.03125 C 11.835938 -18.03125 13.757812 -17.226562 15.25 -15.625 C 16.75 -14.019531 17.5 -11.757812 17.5 -8.84375 C 17.5 -8.664062 17.492188 -8.398438 17.484375 -8.046875 L 4.328125 -8.046875 C 4.441406 -6.109375 4.988281 -4.625 5.96875 -3.59375 C 6.957031 -2.570312 8.1875 -2.0625 9.65625 -2.0625 C 10.757812 -2.0625 11.695312 -2.347656 12.46875 -2.921875 C 13.238281 -3.492188 13.851562 -4.410156 14.3125 -5.671875 Z M 4.5 -10.515625 L 14.34375 -10.515625 C 14.207031 -11.992188 13.832031 -13.101562 13.21875 -13.84375 C 12.257812 -15 11.023438 -15.578125 9.515625 -15.578125 C 8.140625 -15.578125 6.984375 -15.113281 6.046875 -14.1875 C 5.117188 -13.269531 4.601562 -12.046875 4.5 -10.515625 Z M 4.5 -10.515625 "/>
</symbol>
<symbol overflow="visible" id="glyph0-5">
<path style="stroke:none;" d="M 1.6875 1.46875 L 4.59375 1.890625 C 4.71875 2.785156 5.054688 3.441406 5.609375 3.859375 C 6.347656 4.410156 7.363281 4.6875 8.65625 4.6875 C 10.03125 4.6875 11.09375 4.40625 11.84375 3.84375 C 12.601562 3.289062 13.113281 2.519531 13.375 1.53125 C 13.53125 0.914062 13.601562 -0.363281 13.59375 -2.3125 C 12.289062 -0.769531 10.664062 0 8.71875 0 C 6.289062 0 4.410156 -0.875 3.078125 -2.625 C 1.753906 -4.375 1.09375 -6.472656 1.09375 -8.921875 C 1.09375 -10.597656 1.394531 -12.144531 2 -13.5625 C 2.613281 -14.988281 3.5 -16.085938 4.65625 -16.859375 C 5.8125 -17.640625 7.171875 -18.03125 8.734375 -18.03125 C 10.816406 -18.03125 12.53125 -17.1875 13.875 -15.5 L 13.875 -17.625 L 16.640625 -17.625 L 16.640625 -2.390625 C 16.640625 0.359375 16.359375 2.300781 15.796875 3.4375 C 15.234375 4.582031 14.347656 5.488281 13.140625 6.15625 C 11.929688 6.820312 10.441406 7.15625 8.671875 7.15625 C 6.566406 7.15625 4.863281 6.679688 3.5625 5.734375 C 2.269531 4.785156 1.644531 3.363281 1.6875 1.46875 Z M 4.171875 -9.125 C 4.171875 -6.8125 4.628906 -5.125 5.546875 -4.0625 C 6.460938 -3 7.613281 -2.46875 9 -2.46875 C 10.375 -2.46875 11.523438 -2.992188 12.453125 -4.046875 C 13.378906 -5.109375 13.84375 -6.769531 13.84375 -9.03125 C 13.84375 -11.1875 13.363281 -12.8125 12.40625 -13.90625 C 11.445312 -15.007812 10.296875 -15.5625 8.953125 -15.5625 C 7.617188 -15.5625 6.488281 -15.019531 5.5625 -13.9375 C 4.632812 -12.851562 4.171875 -11.25 4.171875 -9.125 Z M 4.171875 -9.125 "/>
</symbol>
<symbol overflow="visible" id="glyph0-6">
<path style="stroke:none;" d="M 2.203125 0 L 2.203125 -17.625 L 4.890625 -17.625 L 4.890625 -14.953125 C 5.578125 -16.203125 6.210938 -17.023438 6.796875 -17.421875 C 7.378906 -17.828125 8.019531 -18.03125 8.71875 -18.03125 C 9.726562 -18.03125 10.75 -17.707031 11.78125 -17.0625 L 10.765625 -14.296875 C 10.023438 -14.722656 9.289062 -14.9375 8.5625 -14.9375 C 7.914062 -14.9375 7.332031 -14.738281 6.8125 -14.34375 C 6.289062 -13.957031 5.914062 -13.414062 5.6875 -12.71875 C 5.363281 -11.65625 5.203125 -10.492188 5.203125 -9.234375 L 5.203125 0 Z M 2.203125 0 "/>
</symbol>
<symbol overflow="visible" id="glyph0-7">
<path style="stroke:none;" d="M 13.75 -2.171875 C 12.644531 -1.234375 11.578125 -0.566406 10.546875 -0.171875 C 9.523438 0.210938 8.425781 0.40625 7.25 0.40625 C 5.3125 0.40625 3.820312 -0.0664062 2.78125 -1.015625 C 1.75 -1.960938 1.234375 -3.175781 1.234375 -4.65625 C 1.234375 -5.507812 1.425781 -6.289062 1.8125 -7 C 2.207031 -7.71875 2.722656 -8.289062 3.359375 -8.71875 C 3.992188 -9.15625 4.710938 -9.488281 5.515625 -9.71875 C 6.097656 -9.863281 6.984375 -10.007812 8.171875 -10.15625 C 10.578125 -10.445312 12.351562 -10.789062 13.5 -11.1875 C 13.507812 -11.59375 13.515625 -11.851562 13.515625 -11.96875 C 13.515625 -13.1875 13.234375 -14.046875 12.671875 -14.546875 C 11.898438 -15.222656 10.765625 -15.5625 9.265625 -15.5625 C 7.859375 -15.5625 6.816406 -15.3125 6.140625 -14.8125 C 5.472656 -14.320312 4.984375 -13.453125 4.671875 -12.203125 L 1.75 -12.59375 C 2.007812 -13.851562 2.441406 -14.863281 3.046875 -15.625 C 3.660156 -16.394531 4.539062 -16.988281 5.6875 -17.40625 C 6.84375 -17.820312 8.179688 -18.03125 9.703125 -18.03125 C 11.203125 -18.03125 12.421875 -17.851562 13.359375 -17.5 C 14.304688 -17.144531 15 -16.695312 15.4375 -16.15625 C 15.882812 -15.625 16.195312 -14.945312 16.375 -14.125 C 16.46875 -13.613281 16.515625 -12.695312 16.515625 -11.375 L 16.515625 -7.390625 C 16.515625 -4.609375 16.578125 -2.847656 16.703125 -2.109375 C 16.835938 -1.378906 17.09375 -0.675781 17.46875 0 L 14.34375 0 C 14.03125 -0.625 13.832031 -1.347656 13.75 -2.171875 Z M 13.5 -8.84375 C 12.414062 -8.40625 10.785156 -8.03125 8.609375 -7.71875 C 7.390625 -7.539062 6.523438 -7.34375 6.015625 -7.125 C 5.503906 -6.90625 5.109375 -6.582031 4.828125 -6.15625 C 4.554688 -5.726562 4.421875 -5.253906 4.421875 -4.734375 C 4.421875 -3.929688 4.71875 -3.265625 5.3125 -2.734375 C 5.914062 -2.203125 6.800781 -1.9375 7.96875 -1.9375 C 9.125 -1.9375 10.148438 -2.1875 11.046875 -2.6875 C 11.941406 -3.195312 12.597656 -3.890625 13.015625 -4.765625 C 13.335938 -5.441406 13.5 -6.4375 13.5 -7.75 Z M 13.5 -8.84375 "/>
</symbol>
</g>
</defs>
<g id="surface1">
<path style="fill-rule:nonzero;fill:rgb(0%,0%,0%);fill-opacity:1;stroke-width:1;stroke-linecap:butt;stroke-linejoin:miter;stroke:rgb(0%,0%,0%);stroke-opacity:1;stroke-miterlimit:10;" d="M 0 133.699687 L 139.820312 133.699687 L 139.820312 134.699687 L 0 134.699687 Z M 0 133.699687 " transform="matrix(1,0,0,1,20,2.98)"/>
<path style="fill-rule:nonzero;fill:rgb(0%,0%,0%);fill-opacity:1;stroke-width:1;stroke-linecap:butt;stroke-linejoin:miter;stroke:rgb(0%,0%,0%);stroke-opacity:1;stroke-miterlimit:10;" d="M 32.46875 1.000469 L 32.46875 173.039531 L 31.46875 173.039531 L 31.46875 1.000469 Z M 32.46875 1.000469 " transform="matrix(1,0,0,1,20,2.98)"/>
<g style="fill:rgb(0%,0%,0%);fill-opacity:1;">
  <use xlink:href="#glyph0-1" x="24.759766" y="28.98"/>
</g>
<g style="fill:rgb(0%,0%,0%);fill-opacity:1;">
  <use xlink:href="#glyph0-2" x="20.010742" y="75.087734"/>
</g>
<g style="fill:rgb(0%,0%,0%);fill-opacity:1;">
  <use xlink:href="#glyph0-3" x="68.699766" y="75.087734"/>
</g>
<g style="fill:rgb(0%,0%,0%);fill-opacity:1;">
  <use xlink:href="#glyph0-4" x="20.010742" y="120.767734"/>
</g>
<g style="fill:rgb(0%,0%,0%);fill-opacity:1;">
  <use xlink:href="#glyph0-5" x="63.950742" y="120.767734"/>
</g>
<g style="fill:rgb(0%,0%,0%);fill-opacity:1;">
  <use xlink:href="#glyph0-6" x="110.464961" y="120.767734"/>
</g>
<g style="fill:rgb(0%,0%,0%);fill-opacity:1;">
  <use xlink:href="#glyph0-4" x="63.950742" y="168.447734"/>
</g>
<g style="fill:rgb(0%,0%,0%);fill-opacity:1;">
  <use xlink:href="#glyph0-7" x="106.890742" y="168.447734"/>
</g>
<g style="fill:rgb(0%,0%,0%);fill-opacity:1;">
  <use xlink:href="#glyph0-3" x="150.079766" y="168.447734"/>
</g>
</g>
</svg>

<svg xmlns="http://www.w3.org/2000/svg" xmlns:xlink="http://www.w3.org/1999/xlink" width="240" height="240" viewBox="0 0 180 180"><defs><symbol overflow="visible" id="a"><path style="stroke:none" d="M3.172 0v-24.344H6.39V0zm0 0"/></symbol><symbol overflow="visible" id="b"><path style="stroke:none" d="M2.234 0v-17.625h2.704v2.5c1.289-1.938 3.16-2.906 5.609-2.906 1.062 0 2.035.195 2.922.578.894.375 1.562.875 2 1.5.445.617.758 1.351.937 2.203.102.555.157 1.523.157 2.906V0h-2.985v-10.719c0-1.219-.117-2.129-.344-2.734-.23-.602-.64-1.082-1.234-1.438-.594-.363-1.293-.546-2.094-.546-1.273 0-2.37.406-3.297 1.218-.918.805-1.375 2.336-1.375 4.594V0zm0 0"/></symbol><symbol overflow="visible" id="c"><path style="stroke:none" d="m8.766-2.672.437 2.64C8.36.146 7.602.235 6.938.235c-1.086 0-1.93-.172-2.532-.515-.593-.344-1.011-.79-1.25-1.344-.242-.563-.36-1.738-.36-3.531v-10.157H.595v-2.312h2.203V-22l2.969-1.797v6.172h3v2.313h-3V-5c0 .855.05 1.406.156 1.656.101.242.273.434.516.578.238.137.578.204 1.015.204.332 0 .77-.036 1.313-.11zm0 0"/></symbol><symbol overflow="visible" id="d"><path style="stroke:none" d="m14.313-5.672 3.093.375c-.492 1.805-1.398 3.203-2.718 4.203-1.313 1-2.997 1.5-5.047 1.5-2.575 0-4.618-.789-6.125-2.375C2.004-3.562 1.25-5.797 1.25-8.672c0-2.957.758-5.254 2.281-6.89 1.531-1.645 3.516-2.47 5.953-2.47 2.352 0 4.274.805 5.766 2.407 1.5 1.605 2.25 3.867 2.25 6.781 0 .18-.008.446-.016.797H4.328c.113 1.938.66 3.422 1.64 4.453.989 1.024 2.22 1.531 3.688 1.531 1.102 0 2.04-.285 2.813-.859.77-.57 1.383-1.488 1.844-2.75zM4.5-10.516h9.844c-.137-1.476-.512-2.586-1.125-3.328-.961-1.156-2.196-1.734-3.703-1.734-1.375 0-2.532.465-3.47 1.39-.929.918-1.444 2.141-1.546 3.672zm0 0"/></symbol><symbol overflow="visible" id="e"><path style="stroke:none" d="m1.688 1.469 2.906.422c.125.894.46 1.55 1.015 1.968.739.551 1.754.829 3.047.829 1.375 0 2.438-.282 3.188-.844.758-.555 1.27-1.324 1.531-2.313.156-.617.227-1.894.219-3.843C12.289-.77 10.664 0 8.719 0c-2.43 0-4.309-.875-5.64-2.625-1.325-1.75-1.985-3.848-1.985-6.297 0-1.676.3-3.223.906-4.64.613-1.426 1.5-2.524 2.656-3.297 1.157-.782 2.516-1.172 4.078-1.172 2.082 0 3.797.843 5.141 2.531v-2.125h2.766v15.234c0 2.75-.282 4.692-.844 5.829-.563 1.144-1.45 2.05-2.656 2.718-1.211.664-2.7 1-4.47 1-2.105 0-3.808-.476-5.108-1.422-1.293-.949-1.918-2.37-1.876-4.265zM4.171-9.125c0 2.313.457 4 1.375 5.063C6.46-3 7.613-2.47 9-2.47c1.375 0 2.523-.523 3.453-1.578.926-1.062 1.39-2.723 1.39-4.984 0-2.156-.48-3.781-1.437-4.875-.96-1.102-2.11-1.656-3.453-1.656-1.336 0-2.465.542-3.39 1.624-.93 1.086-1.391 2.688-1.391 4.813zm0 0"/></symbol><symbol overflow="visible" id="f"><path style="stroke:none" d="M2.203 0v-17.625h2.688v2.672c.687-1.25 1.32-2.07 1.906-2.469a3.285 3.285 0 0 1 1.922-.61c1.008 0 2.031.325 3.062.97l-1.015 2.765c-.743-.426-1.477-.64-2.204-.64-.648 0-1.23.199-1.75.593-.523.387-.898.93-1.125 1.625-.324 1.063-.484 2.227-.484 3.485V0zm0 0"/></symbol><symbol overflow="visible" id="g"><path style="stroke:none" d="M13.75-2.172c-1.105.938-2.172 1.606-3.203 2A9.33 9.33 0 0 1 7.25.406c-1.938 0-3.43-.472-4.469-1.422-1.031-.945-1.547-2.16-1.547-3.64 0-.852.192-1.633.579-2.344.394-.719.91-1.29 1.546-1.719a7.285 7.285 0 0 1 2.157-1c.582-.144 1.468-.289 2.656-.437 2.406-.29 4.18-.633 5.328-1.031.008-.407.016-.665.016-.782 0-1.219-.282-2.078-.844-2.578-.774-.676-1.906-1.015-3.406-1.015-1.407 0-2.45.25-3.125.75-.668.492-1.157 1.359-1.47 2.609l-2.921-.39c.258-1.259.691-2.27 1.297-3.032.613-.77 1.492-1.363 2.64-1.781 1.157-.414 2.493-.625 4.016-.625 1.5 0 2.719.18 3.656.531.946.355 1.641.805 2.079 1.344.445.531.757 1.21.937 2.031.094.512.14 1.43.14 2.75v3.984c0 2.782.063 4.543.188 5.282.133.73.39 1.433.766 2.109h-3.125c-.313-.625-.512-1.348-.594-2.172zm-.25-6.672c-1.086.438-2.715.813-4.89 1.125-1.22.18-2.087.375-2.594.594a2.614 2.614 0 0 0-1.188.969c-.273.43-.406.902-.406 1.422 0 .804.297 1.468.89 2 .602.53 1.489.796 2.657.796 1.156 0 2.18-.25 3.078-.75.894-.507 1.55-1.203 1.969-2.078.32-.675.484-1.671.484-2.984zm0 0"/></symbol></defs><path style="stroke:none;fill-rule:nonzero;fill:#000;fill-opacity:1" d="M20 136.68h139.82v1H20zm0 0"/><path style="stroke:none;fill-rule:nonzero;fill:#000;fill-opacity:1" d="M52.469 3.98v172.04h-1V3.98zm0 0"/><use xlink:href="#a" x="24.767" y="28.98" style="fill:#000;fill-opacity:1"/><use xlink:href="#b" x="20.024" y="75.054" style="fill:#000;fill-opacity:1"/><use xlink:href="#c" x="68.707" y="75.054" style="fill:#000;fill-opacity:1"/><use xlink:href="#d" x="20.024" y="120.734" style="fill:#000;fill-opacity:1"/><use xlink:href="#e" x="63.964" y="120.734" style="fill:#000;fill-opacity:1"/><use xlink:href="#f" x="110.472" y="120.734" style="fill:#000;fill-opacity:1"/><use xlink:href="#d" x="63.964" y="168.414" style="fill:#000;fill-opacity:1"/><use xlink:href="#g" x="106.904" y="168.414" style="fill:#000;fill-opacity:1"/><use xlink:href="#c" x="150.088" y="168.414" style="fill:#000;fill-opacity:1"/></svg>
